!!!OTL: SO HAT GOTT DIE WELT ERSCHAFFEN
!!!ARE: Europa, Mitteleuropa, Deutschland, Niederrhein
!!!SCT: E0731A
!!!YEM: Copyright 1995, estate of Helmut Schaffrath.
**kern
*ICvox
*Ivox
*M3/4
*k[]
*C:
{8g
16cc
16a
=1
4g
8e
8e
8f
8a
=2
4a
4g}
{8g
16cc
16a
=3
4g
8e
8e
8f
8a
=4
4a
4g}
{16g
16a
16b
16g
=5
4.cc
8dd
16cc
16b
8a
=6
4.g}
{8cc
8g
16g
16f
=7
4e
4g
16g
16f
16d
16f
=8
4e
4r}
==
!!!AGN: Liebes - Lied, Leid, Klage, Tod
!!!ONB: ESAC (Essen Associative Code) Database: ERK2
!!!AMT: simple triple
!!!AIN: vox
!!!EED: Helmut Schaffrath
!!!EEV: 1.0
*-
